X: 202
T: General Wolfe's March
B: C. & S. Thompson, "The Compleat Tutor for the Fife" c.1760 p.20 #2
S: http://imslp.org/wiki/The_Compleat_Tutor_for_the_Fife_(Anonymous)
Z: 2014 John Chambers <jc:trillian.mit.edu>
M: C|
L: 1/8
K: D
% - - - - - - - - - - - - - - - - - - - - - - - - -
A2 |\
defg f2e2 | d4 A4 | fgab a2g2 | f4 e4 |\
gfga g2f2 | Te4 d4 | g2ag f2ga | {f2}e6 a2 |
edef e2a2 | A^GAB A2f2 | d2cB TB3A | A6 :: A2 |\
e2e>d e2f2 | g4 Te3d/e/ | f2gf e2d2 | a4 e4 |
A2AA A2d2 | A2AA A2f2 | d2dd d2a2 | f2ff f2d'2 |\
b2ag a2gf | g4 b4 | a2gf g2fe | f4 a4 |
g2fe f2ed | e2A2 d4 | g2fe Te3d | d2dd d2af |\
d2dd d2f2 | e2ee e2eg | f2ed Te3d | d6 :|
% - - - - - - - - - - - - - - - - - - - - - - - - -

%%sep 1 1 500
%%sep 1 1 500

